X:132
T:Cousin's Delight
R:polka
D:Dennis Doody
Z:id:hn-polka-132
M:2/4
L:1/8
K:G
Bd Bd | g2 g2 | Bd Bd | BA B/A/G |
Bd Bd | g2 g>a | ge dB |1 AB/A/ G>A :|2 AB/A/ G2 ||
|: ba/b/ ag | ag e/f/g | ba/b/ ag | ba ag |
ga b/a/g | eg/e/ de/d/ | Bd dB | AB/A/ G2 :|

